img/home/illus-relevant.svg

<?xml version="1.0" encoding="UTF-8" standalone="no"?>
<svg width="350px" height="350px" viewBox="0 0 350 350" version="1.1" xmlns="http://www.w3.org/2000/svg" xmlns:xlink="http://www.w3.org/1999/xlink">
    <!-- Generator: Sketch 39.1 (31720) - http://www.bohemiancoding.com/sketch -->
    <title>illus-relevant</title>
    <desc>Created with Sketch.</desc>
    <defs>
        <polygon id="path-1" points="112.333777 0.0711292822 21.2279377 0.0711292822 0.473443712 14.9439769 0.473443712 52.7814966 127.451046 52.7814966 127.451046 14.9439769"></polygon>
        <polygon id="path-3" points="112.333777 0.0711292822 21.2279377 0.0711292822 0.473443712 14.9439769 0.473443712 52.7814966 125.451046 52.7814966 125.451046 16.9439769"></polygon>
        <mask id="mask-4" maskContentUnits="userSpaceOnUse" maskUnits="objectBoundingBox" x="0" y="0" width="124.977602" height="52.7103674" fill="white">
            <use xlink:href="#path-3"></use>
        </mask>
        <rect id="path-5" x="0.597459075" y="0.208571984" width="19.606962" height="42.4345638"></rect>
        <path d="M46.488114,94.9600047 C55.3942027,109.86905 67.0146657,120.815797 85.1825525,120.815797 C103.55624,120.815797 117.577489,109.980807 126.834611,94.6683911 C135.617029,92.2820257 153.564556,85.8880995 161.089656,72.1138618 C171.240872,53.5326772 171.753203,12.9433597 171.753203,12.9433597 C171.753203,12.9433597 155.694906,13.22709 146.341577,13.3923521 L143.785393,13.4375168 C143.851588,11.1896123 143.882125,9.16696749 143.882125,7.42392175 C143.882125,-1.03815851 27.7058877,-1.60229717 27.7058877,7.42392175 C27.7058877,9.15927048 27.7361258,11.1787357 27.8033428,13.426365 L25.8783172,13.3923521 C16.5249879,13.22709 0.466690898,12.9433597 0.466690898,12.9433597 C0.466690898,12.9433597 0.979021653,53.5326772 11.1302385,72.1138618 C18.9859536,86.4932704 38.2000312,92.8296136 46.488114,94.9600047 L46.488114,94.9600047 Z M37.8695385,77.5204593 C32.4006356,62.9183422 29.6764348,42.5472072 28.4884522,26.4382007 L25.1258831,26.3788023 C18.4771799,26.2613275 14.4162002,26.1895749 14.4162002,26.1895749 C14.4162002,26.1895749 13.7851591,51.2881236 21.815324,65.674665 C26.0615164,73.2819834 32.4049452,76.3297404 37.8695385,77.5204593 L37.8695385,77.5204593 Z M134.672499,77.4483226 C139.481517,62.6244807 141.997893,42.4358055 143.123286,26.4489602 L147.094011,26.3788023 C153.742714,26.2613275 157.803694,26.1895749 157.803694,26.1895749 C157.803694,26.1895749 158.434735,51.2881236 150.40457,65.674665 C146.241561,73.1329564 140.062679,76.2085797 134.672499,77.4483226 L134.672499,77.4483226 Z M85.7940065,167.63625 C100.469298,167.63625 129.360095,165.097626 129.360095,161.712794 C129.360095,154.962633 114.151426,148.319565 102.313912,144.962303 C102.313911,144.962302 95.0499854,135.809309 95.0499854,135.809309 C95.0499854,135.809309 92.3701516,138.256967 85.7940082,138.256967 C79.2178648,138.256967 77.035196,135.809309 77.035196,135.809309 C77.035196,135.809309 68.9641689,144.962303 68.9641686,144.962303 C57.1161499,149.135451 42.2279174,154.558797 42.2279174,161.712794 C42.2279174,165.097626 71.4252383,167.63625 85.7940065,167.63625 L85.7940065,167.63625 Z" id="path-7"></path>
        <rect id="path-9" x="0.473443712" y="0.279033679" width="125.273205" height="36.292384"></rect>
    </defs>
    <g id="Page-1" stroke="none" stroke-width="1" fill="none" fill-rule="evenodd">
        <g id="illus-relevant" transform="translate(2.861883, 2.000000)">
            <g id="features/illus-relevant">
                <g id="Page-1">
                    <g id="features-icons">
                        <g id="features/illus-relevant">
                            <path d="M172.38445,345.014479 C77.1812201,345.014479 0,267.781419 0,172.507239 C0,77.2361958 77.1812201,0 172.38445,0 C267.587681,0 344.768901,77.2361958 344.768901,172.507239 C344.768901,267.781419 267.587681,345.014479 172.38445,345.014479 L172.38445,345.014479 Z" id="Fill-311" stroke-opacity="0.333305027" stroke="#2897C5" stroke-width="4" fill="#FFFFFF"></path>
                            <g id="Group" transform="translate(86.820297, 67.526898)">
                                <g id="Rectangle-13-Copy-Clipped" transform="translate(19.127126, 153.739450)">
                                    <mask id="mask-2" fill="white">
                                        <use xlink:href="#path-1"></use>
                                    </mask>
                                    <g id="path-1"></g>
                                    <g id="Rectangle-13-Copy" mask="url(#mask-2)" stroke="#2897C5" stroke-width="4" fill="#FFFFFF">
                                        <use id="path-1" mask="url(#mask-4)" xlink:href="#path-3"></use>
                                    </g>
                                </g>
                                <g id="Rectangle-14-Clipped" transform="translate(75.383267, 112.865513)">
                                    <mask id="mask-6" fill="white">
                                        <use xlink:href="#path-5"></use>
                                    </mask>
                                    <g id="path-3"></g>
                                    <g id="Rectangle-14" mask="url(#mask-6)" stroke="#2897C5" stroke-width="5" fill="#F2F9FB">
                                        <rect id="path-3" x="0.597459075" y="0.208571984" width="19.606962" height="42.4345638"></rect>
                                    </g>
                                </g>
                                <g id="Rectangle-13-Clipped">
                                    <mask id="mask-8" fill="white">
                                        <use xlink:href="#path-7"></use>
                                    </mask>
                                    <g id="path-5"></g>
                                    <g id="Rectangle-13" mask="url(#mask-8)" stroke="#2897C5" stroke-width="6" fill="#FFFFFF">
                                        <path d="M46.488114,94.9600047 C55.3942027,109.86905 67.0146657,120.815797 85.1825525,120.815797 C103.55624,120.815797 117.577489,109.980807 126.834611,94.6683911 C135.617029,92.2820257 153.564556,85.8880995 161.089656,72.1138618 C171.240872,53.5326772 171.753203,12.9433597 171.753203,12.9433597 C171.753203,12.9433597 155.694906,13.22709 146.341577,13.3923521 L143.785393,13.4375168 C143.851588,11.1896123 143.882125,9.16696749 143.882125,7.42392175 C143.882125,-1.03815851 27.7058877,-1.60229717 27.7058877,7.42392175 C27.7058877,9.15927048 27.7361258,11.1787357 27.8033428,13.426365 L25.8783172,13.3923521 C16.5249879,13.22709 0.466690898,12.9433597 0.466690898,12.9433597 C0.466690898,12.9433597 0.979021653,53.5326772 11.1302385,72.1138618 C18.9859536,86.4932704 38.2000312,92.8296136 46.488114,94.9600047 L46.488114,94.9600047 Z M37.8695385,77.5204593 C32.4006356,62.9183422 29.6764348,42.5472072 28.4884522,26.4382007 L25.1258831,26.3788023 C18.4771799,26.2613275 14.4162002,26.1895749 14.4162002,26.1895749 C14.4162002,26.1895749 13.7851591,51.2881236 21.815324,65.674665 C26.0615164,73.2819834 32.4049452,76.3297404 37.8695385,77.5204593 L37.8695385,77.5204593 Z M134.672499,77.4483226 C139.481517,62.6244807 141.997893,42.4358055 143.123286,26.4489602 L147.094011,26.3788023 C153.742714,26.2613275 157.803694,26.1895749 157.803694,26.1895749 C157.803694,26.1895749 158.434735,51.2881236 150.40457,65.674665 C146.241561,73.1329564 140.062679,76.2085797 134.672499,77.4483226 L134.672499,77.4483226 Z M85.7940065,167.63625 C100.469298,167.63625 129.360095,165.097626 129.360095,161.712794 C129.360095,154.962633 114.151426,148.319565 102.313912,144.962303 C102.313911,144.962302 95.0499854,135.809309 95.0499854,135.809309 C95.0499854,135.809309 92.3701516,138.256967 85.7940082,138.256967 C79.2178648,138.256967 77.035196,135.809309 77.035196,135.809309 C77.035196,135.809309 68.9641689,144.962303 68.9641686,144.962303 C57.1161499,149.135451 42.2279174,154.558797 42.2279174,161.712794 C42.2279174,165.097626 71.4252383,167.63625 85.7940065,167.63625 L85.7940065,167.63625 Z" id="path-5"></path>
                                    </g>
                                </g>
                                <path d="M65.2119596,97.7982903 C70.7794419,97.7982903 73.1212567,59.3749089 71.7784294,41.6031812 C70.4356019,23.8314533 72.3508471,18.68907 58.4197343,18.68907 C44.4886212,18.68907 43.7236998,23.1205843 45.7379409,41.6031812 C47.7521822,60.0857779 59.6444773,97.7982903 65.2119596,97.7982903 L65.2119596,97.7982903 Z" id="Oval-12" fill="#FFFFFF"></path>
                                <path d="M85.2198671,12.0974613 C116.283185,12.0974613 141.464979,9.58583887 141.464979,7.24405971 C141.464979,4.90228053 116.283185,2.59231314 85.2198671,2.59231314 C54.1565493,2.59231314 28.9747549,4.90228053 28.9747549,7.24405971 C28.9747549,9.58583887 54.1565493,12.0974613 85.2198671,12.0974613 L85.2198671,12.0974613 Z" id="Oval-47" stroke="#2897C5" stroke-width="2" fill="#F2F9FB"></path>
                                <polygon id="Star-1" stroke="#FE336F" stroke-width="3" fill="#FFFFFF" points="87.7764632 70.4920382 69.342392 79.4976031 72.8645825 60.4263311 57.9495096 46.9208045 78.560414 44.1396751 87.7764632 26.7872357 96.9925123 44.1396751 117.603417 46.9208045 102.688344 60.4263311 106.210534 79.4976031"></polygon>
                                <g id="Rectangle-16-Copy-Clipped" transform="translate(19.127126, 169.949529)">
                                    <mask id="mask-10" fill="white">
                                        <use xlink:href="#path-9"></use>
                                    </mask>
                                    <g id="path-7"></g>
                                    <g id="Rectangle-16-Copy" mask="url(#mask-10)" stroke="#2897C5" stroke-width="3">
                                        <rect id="path-7" x="0.473443712" y="0.279033679" width="125.273205" height="36.292384"></rect>
                                    </g>
                                </g>
                            </g>
                        </g>
                    </g>
                </g>
            </g>
        </g>
    </g>
</svg>

<svg width="350" height="350" viewBox="0 0 350 350" xmlns="http://www.w3.org/2000/svg" xmlns:xlink="http://www.w3.org/1999/xlink"><title>illus-relevant</title><defs><path id="b" d="M112.334.071H21.228L.473 14.944v37.837h126.978V14.944z"/><path id="a" d="M112.334.071H21.228L.473 14.944v37.837h124.978V16.944z"/><mask id="d" x="0" y="0" width="124.978" height="52.71" fill="#fff"><use xlink:href="#a"/></mask><path id="e" d="M.597.209h19.607v42.435H.597z"/><path d="M46.488 94.96c8.906 14.91 20.527 25.856 38.695 25.856 18.373 0 32.394-10.835 41.652-26.148 8.782-2.386 26.73-8.78 34.255-22.554 10.15-18.581 10.663-59.17 10.663-59.17l-25.411.448-2.557.046c.067-2.248.097-4.271.097-6.014 0-8.462-116.176-9.026-116.176 0 0 1.735.03 3.755.097 6.002l-1.925-.034-25.411-.449s.512 40.59 10.663 59.17C18.986 86.494 38.2 92.83 46.488 94.96zM37.87 77.52c-5.47-14.602-8.194-34.973-9.382-51.082l-3.362-.06-10.71-.188s-.63 25.098 7.4 39.485C26.061 73.282 32.404 76.33 37.87 77.52zm96.802-.072c4.81-14.824 7.326-35.012 8.451-50.999l3.971-.07 10.71-.19s.63 25.1-7.4 39.486c-4.162 7.458-10.341 10.534-15.732 11.773zm-48.878 90.188c14.675 0 43.566-2.538 43.566-5.923 0-6.75-15.209-13.393-27.046-16.75l-7.264-9.154s-2.68 2.448-9.256 2.448c-6.576 0-8.759-2.448-8.759-2.448l-8.07 9.153c-11.849 4.173-26.737 9.597-26.737 16.75 0 3.386 29.197 5.924 43.566 5.924z" id="g"/><path id="i" d="M.473.279h125.273v36.292H.473z"/></defs><g fill="none" fill-rule="evenodd"><path d="M175.246 347.014c-95.203 0-172.384-77.233-172.384-172.507C2.862 79.237 80.043 2 175.246 2c95.204 0 172.385 77.236 172.385 172.507 0 95.274-77.181 172.507-172.385 172.507z" stroke-opacity=".333" stroke="#2897C5" stroke-width="4" fill="#FFF"/><g transform="translate(108.81 223.266)"><mask id="c" fill="#fff"><use xlink:href="#b"/></mask><g mask="url(#c)" stroke="#2897C5" stroke-width="4" fill="#FFF"><use mask="url(#d)" xlink:href="#a"/></g></g><g transform="translate(165.065 182.392)"><mask id="f" fill="#fff"><use xlink:href="#e"/></mask><g mask="url(#f)" stroke="#2897C5" stroke-width="5" fill="#F2F9FB"><path d="M.597.209h19.607v42.435H.597z"/></g></g><g transform="translate(89.682 69.527)"><mask id="h" fill="#fff"><use xlink:href="#g"/></mask><g mask="url(#h)" stroke="#2897C5" stroke-width="6" fill="#FFF"><path d="M46.488 94.96c8.906 14.91 20.527 25.856 38.695 25.856 18.373 0 32.394-10.835 41.652-26.148 8.782-2.386 26.73-8.78 34.255-22.554 10.15-18.581 10.663-59.17 10.663-59.17l-25.411.448-2.557.046c.067-2.248.097-4.271.097-6.014 0-8.462-116.176-9.026-116.176 0 0 1.735.03 3.755.097 6.002l-1.925-.034-25.411-.449s.512 40.59 10.663 59.17C18.986 86.494 38.2 92.83 46.488 94.96zM37.87 77.52c-5.47-14.602-8.194-34.973-9.382-51.082l-3.362-.06-10.71-.188s-.63 25.098 7.4 39.485C26.061 73.282 32.404 76.33 37.87 77.52zm96.802-.072c4.81-14.824 7.326-35.012 8.451-50.999l3.971-.07 10.71-.19s.63 25.1-7.4 39.486c-4.162 7.458-10.341 10.534-15.732 11.773zm-48.878 90.188c14.675 0 43.566-2.538 43.566-5.923 0-6.75-15.209-13.393-27.046-16.75l-7.264-9.154s-2.68 2.448-9.256 2.448c-6.576 0-8.759-2.448-8.759-2.448l-8.07 9.153c-11.849 4.173-26.737 9.597-26.737 16.75 0 3.386 29.197 5.924 43.566 5.924z"/></g></g><path d="M154.894 167.325c5.568 0 7.91-38.423 6.567-56.195s.572-22.914-13.36-22.914c-13.93 0-14.695 4.431-12.68 22.914 2.013 18.483 13.906 56.195 19.473 56.195z" fill="#FFF"/><path d="M174.902 81.624c31.063 0 56.245-2.511 56.245-4.853 0-2.342-25.182-4.652-56.245-4.652s-56.245 2.31-56.245 4.652 25.182 4.853 56.245 4.853z" stroke="#2897C5" stroke-width="2" fill="#F2F9FB"/><path stroke="#FE336F" stroke-width="3" fill="#FFF" d="M177.459 140.019l-18.434 9.006 3.522-19.072-14.915-13.505 20.61-2.781 9.217-17.353 9.216 17.353 20.61 2.78-14.914 13.506 3.522 19.072z"/><g transform="translate(108.81 239.476)"><mask id="j" fill="#fff"><use xlink:href="#i"/></mask><g mask="url(#j)" stroke="#2897C5" stroke-width="3"><path d="M.473.279h125.273v36.292H.473z"/></g></g></g></svg>
